X:57
T:Richard Dwyer's
R:reel
Z:Transcribed by Dave Marshall
M:C|
K:Ador
|: A2EA cdec | dBGB AEGF | EAcA Bdgf | eaag a4 |
e=fed cA~A2 | g2dc BdcB | AEcE dEcd | ecAG EAA2 :|
|: a2ea c'aea | g2dg bgdg | aged cded | cABG EAA2 |
a2ea c'aea | gage dBGB | ABcd eaaf | gedf eAA2 :|
